X:47
%%etbk:tnset id:135,pos:3,rep:3x,ant:
%%etbk:tnset id:504,pos:3,rep:3x,ant:
%%etbk:wsite http://www.thesession.org/tunes/display/237
%%etbk:pldat 2016-09-08T18:45,2016-09-04T13:43,2016-07-26T15:22,2016-07-19T20:27,2016-07-09T13:23,2016-07-05T17:14,2016-06-16T19:21,2016-06-12T13:25,2016-05-30T19:07,2016-05-24T16:05,2016-05-23T18:12,2016-05-15T16:11,2016-05-14T17:32,2016-05-12T19:06,2016-04-23T15:46,2016-04-21T18:57,2016-04-18T18:49,2016-04-11T18:27,2016-04-07T17:25,2016-04-02T15:26,2016-03-25T15:54,2016-03-23T17:24,2016-03-22T16:07,2016-03-21T18:30,2016-03-20T10:36,2016-03-17T17:33,2016-03-16T16:52,2016-03-15T15:46,2016-03-14T18:30,2016-02-13T14:59,2016-02-10T17:14,2016-02-08T19:16,2015-07-29T17:30,2015-04-23T19:03,2015-04-22T16:30,2015-04-21T17:31,2015-02-18T17:30,2015-02-14T14:40,2014-10-30T18:32,2014-10-29T16:34,2014-10-28T15:09,2014-10-25T14:45,2014-10-24T18:53,2014-10-23T18:50,2014-10-19T14:49,2014-10-12T15:25,2014-10-11T14:42,2014-10-09T09:26,2014-10-05T16:32,2014-10-03T15:39,2014-09-30T11:19,2014-09-27T10:52,2014-09-25T17:33,2014-05-11T12:25,2014-03-23T15:31,2014-01-22T16:21,2014-01-21T17:16,2014-01-20T18:32,2014-01-19T13:40,2014-01-18T14:15,2014-01-14T19:26,2014-01-13T18:06,2014-01-09T18:18,2014-01-08T15:53,2014-01-03T16:14,2013-12-28T13:32,2013-12-27T16:49,2013-12-22T16:35,2013-12-18T17:04,2013-12-17T16:29,2013-12-15T16:09,2013-10-28T19:22,2013-10-18T16:46,2013-10-16T17:06,2013-10-14T18:39,2013-10-11T18:21,2013-10-08T15:22,2013-09-12T18:36,2013-08-26T18:28,2013-05-23T18:39,2013-05-21T17:00,2013-05-10T15:20,2013-05-07T19:28,2013-05-01T17:12
T: Blackhaired Lass, The
Z: Piano Box Version by Martin Fleischmann
H: Created 2013-02-19 /  Last Modified 2013-02-19
M: 4/4
L: 1/8
R: reel
K: Amix
|: "A"!3!cAAB cdec | "G"!4!d2 !5!g!4!d !2!BGGB | "A"!3!cBAB cd!5!ec | "D"!4!d!1!A!5!e!3!c "A"!1!A4:|
| "A"!3!c!1!def "G"!4!g2eg | "D"!3!f2df !4!gfe!1!d | !2!c!1!def "G"!4!g2ag | !3!f!1!d"A"!5!e!3!c !1!A4 |
| !3!c!1!def "G"!4!ggeg  | "D"!3!ffdf "G"!4!g2fg | !5!afge !3!fd!5!e!3!c | !4!d!1!A"A"!5!e!3!c !1!A4 ||


